X: 32167
T: Peter Street
R: reel
M: 4/4
K: Gmajor
|:Bc|d2BG dG BG|dGgG fGeG|d2BG dGBG|FDAD BDAD|
G2BG dGBG|dGgG fGeG|(3ded Bd gedB|AGAB G2:|
|:FE|D2 FD ADFD|ADcD BDAD|G2BG dGBG|dGgG fGeG|
d^cdB gfge|d^cdB gfge|dBgf edcB|1 AGFE D2:|2 AGAB G2||

